packages/calcite-ui-icons/icons/multiple-variables-set-24.svg

<?xml version="1.0" encoding="UTF-8"?><svg id="icons" xmlns="http://www.w3.org/2000/svg" viewBox="0 0 24 24"><defs><style>.cls-1{fill:none;}</style></defs><path d="M16,8c2.20605,0,3.99-1.79395,3.99-4s-1.78395-4-3.99-4-3.99,1.79395-3.99,4,1.78395,4,3.99,4ZM16,1c1.6543,0,3,1.3457,3,3s-1.3457,3-3,3-3-1.3457-3-3,1.3457-3,3-3ZM6.5,4.0625L1.08887,8.3457l2.44434,5.6543h6.05566l2.31641-5.6582-5.40527-4.2793ZM8.91699,13h-4.72754l-1.87793-4.3457,4.18848-3.31641,4.19434,3.32031-1.77734,4.3418ZM13,17l-2-4.5,4.5-3.5,4.4,3.5-.56669,1.5h-5.33331c-.55231,0-1,.44769-1,1v2ZM17,24h-3v-9h3v1h-2v7h2v1ZM24,15v9h-3v-1h2v-7h-2v-1h3Z"/><rect class="cls-1" width="24" height="24"/></svg>

<svg xmlns="http://www.w3.org/2000/svg" viewBox="0 0 24 24"><path d="M16 8c2.206 0 3.99-1.794 3.99-4S18.206 0 16 0s-3.99 1.794-3.99 4S13.794 8 16 8zm0-7c1.654 0 3 1.346 3 3s-1.346 3-3 3-3-1.346-3-3 1.346-3 3-3zM6.5 4.063L1.089 8.346 3.533 14H9.59l2.316-5.658L6.5 4.062zM8.917 13H4.189L2.312 8.654 6.5 5.338l4.194 3.32L8.917 13zM13 17l-2-4.5L15.5 9l4.4 3.5-.567 1.5H14a1 1 0 0 0-1 1v2zm4 7h-3v-9h3v1h-2v7h2v1zm7-9v9h-3v-1h2v-7h-2v-1h3z"/><path fill="none" d="M0 0h24v24H0z"/></svg>
